raw-svg/microchip.svg

<svg fill="none" height="24" viewBox="0 0 24 24" width="24" xmlns="http://www.w3.org/2000/svg"><path clip-rule="evenodd" d="m7.99997 3.25c.41421 0 .75.33579.75.75v1.25h2.50003v-1.25c0-.41421.3358-.75.75-.75s.75.33579.75.75v1.25h2.5v-1.25c0-.41421.3358-.75.75-.75s.75.33579.75.75v1.25h.25c.9665 0 1.75.7835 1.75 1.75v.25h1.25c.4142 0 .75.33579.75.75s-.3358.75-.75.75h-1.25v2.5h1.25c.4142 0 .75.3358.75.75s-.3358.75-.75.75h-1.25v2.5h1.25c.4142 0 .75.3358.75.75s-.3358.75-.75.75h-1.25v.25c0 .9665-.7835 1.75-1.75 1.75h-.25v1.25c0 .4142-.3358.75-.75.75s-.75-.3358-.75-.75v-1.25h-2.5v1.25c0 .4142-.3358.75-.75.75s-.75-.3358-.75-.75v-1.25h-2.50003v1.25c0 .4142-.33579.75-.75.75s-.75-.3358-.75-.75v-1.25h-.25c-.9665 0-1.75-.7835-1.75-1.75v-.25h-1.25c-.41421 0-.75-.3358-.75-.75s.33579-.75.75-.75h1.25v-2.5h-1.25c-.41421 0-.75-.3358-.75-.75s.33579-.75.75-.75h1.25v-2.5h-1.25c-.41421 0-.75-.33579-.75-.75s.33579-.75.75-.75h1.25v-.25c0-.9665.7835-1.75 1.75-1.75h.25v-1.25c0-.41421.33579-.75.75-.75zm-1 3.5c-.13807 0-.25.11193-.25.25v10c0 .1381.11193.25.25.25h10.00003c.138 0 .25-.1119.25-.25v-10c0-.13807-.112-.25-.25-.25z" fill="#000" fill-rule="evenodd"/></svg>

<svg width="24" height="24" viewBox="0 0 24 24" fill="none" xmlns="http://www.w3.org/2000/svg">
<path fill-rule="evenodd" clip-rule="evenodd" d="M7.99997 3.25C8.41418 3.25 8.74997 3.58579 8.74997 4V5.25H11.25V4C11.25 3.58579 11.5858 3.25 12 3.25C12.4142 3.25 12.75 3.58579 12.75 4V5.25H15.25V4C15.25 3.58579 15.5858 3.25 16 3.25C16.4142 3.25 16.75 3.58579 16.75 4V5.25H17C17.9665 5.25 18.75 6.0335 18.75 7V7.25H20C20.4142 7.25 20.75 7.58579 20.75 8C20.75 8.41421 20.4142 8.75 20 8.75H18.75V11.25H20C20.4142 11.25 20.75 11.5858 20.75 12C20.75 12.4142 20.4142 12.75 20 12.75H18.75V15.25H20C20.4142 15.25 20.75 15.5858 20.75 16C20.75 16.4142 20.4142 16.75 20 16.75H18.75V17C18.75 17.9665 17.9665 18.75 17 18.75H16.75V20C16.75 20.4142 16.4142 20.75 16 20.75C15.5858 20.75 15.25 20.4142 15.25 20V18.75H12.75V20C12.75 20.4142 12.4142 20.75 12 20.75C11.5858 20.75 11.25 20.4142 11.25 20V18.75H8.74997V20C8.74997 20.4142 8.41418 20.75 7.99997 20.75C7.58576 20.75 7.24997 20.4142 7.24997 20V18.75H6.99997C6.03347 18.75 5.24997 17.9665 5.24997 17V16.75H3.99997C3.58576 16.75 3.24997 16.4142 3.24997 16C3.24997 15.5858 3.58576 15.25 3.99997 15.25H5.24997V12.75H3.99997C3.58576 12.75 3.24997 12.4142 3.24997 12C3.24997 11.5858 3.58576 11.25 3.99997 11.25H5.24997V8.75H3.99997C3.58576 8.75 3.24997 8.41421 3.24997 8C3.24997 7.58579 3.58576 7.25 3.99997 7.25H5.24997V7C5.24997 6.0335 6.03347 5.25 6.99997 5.25H7.24997V4C7.24997 3.58579 7.58576 3.25 7.99997 3.25ZM6.99997 6.75C6.8619 6.75 6.74997 6.86193 6.74997 7V17C6.74997 17.1381 6.8619 17.25 6.99997 17.25H17C17.138 17.25 17.25 17.1381 17.25 17V7C17.25 6.86193 17.138 6.75 17 6.75H6.99997Z" fill="black"/>
</svg>
